static/img/kroki/01c5fd508e5f32ee02e89b3e5ff4c3a3.svg

<?xml version="1.0" encoding="us-ascii" standalone="no"?><svg xmlns="http://www.w3.org/2000/svg" xmlns:xlink="http://www.w3.org/1999/xlink" contentStyleType="text/css" height="252px" preserveAspectRatio="none" style="width:607px;height:252px;" version="1.1" viewBox="0 0 607 252" width="607px" zoomAndPan="magnify"><defs/><g><!--class gcp_sql_database--><g id="elem_gcp_sql_database"><rect codeLine="22" fill="#3D176E" height="39.7891" id="gcp_sql_database" rx="2.5" ry="2.5" style="stroke:#000D19;stroke-width:0.5;" width="186" x="7" y="206.58"/><ellipse cx="22" cy="226.4745" fill="#ADD1B2" rx="11" ry="11" style="stroke:#181818;stroke-width:1.0;"/><path d="M24.9688,232.1152 Q24.3906,232.412 23.75,232.5527 Q23.1094,232.7089 22.4063,232.7089 Q19.9063,232.7089 18.5781,231.0683 Q17.2656,229.412 17.2656,226.287 Q17.2656,223.162 18.5781,221.5058 Q19.9063,219.8495 22.4063,219.8495 Q23.1094,219.8495 23.75,220.0058 Q24.4063,220.162 24.9688,220.4589 L24.9688,223.1777 Q24.3438,222.5995 23.75,222.3339 Q23.1563,222.0527 22.5313,222.0527 Q21.1875,222.0527 20.5,223.1308 Q19.8125,224.1933 19.8125,226.287 Q19.8125,228.3808 20.5,229.4589 Q21.1875,230.5214 22.5313,230.5214 Q23.1563,230.5214 23.75,230.2558 Q24.3438,229.9745 24.9688,229.3964 L24.9688,232.1152 Z " fill="#000000"/><text fill="#D9B8FF" font-family="Helvetica" font-size="17" lengthAdjust="spacing" textLength="144" x="41" y="232.3598">gcp_sql_database</text></g><!--class gcp_sql_database_instance--><g id="elem_gcp_sql_database_instance"><rect codeLine="24" fill="#3D176E" height="39.7891" id="gcp_sql_database_instance" rx="2.5" ry="2.5" style="stroke:#000D19;stroke-width:0.5;" width="265" x="190.5" y="106.79"/><ellipse cx="205.5" cy="126.6845" fill="#ADD1B2" rx="11" ry="11" style="stroke:#181818;stroke-width:1.0;"/><path d="M208.4688,132.3252 Q207.8906,132.622 207.25,132.7627 Q206.6094,132.9189 205.9063,132.9189 Q203.4063,132.9189 202.0781,131.2783 Q200.7656,129.622 200.7656,126.497 Q200.7656,123.372 202.0781,121.7158 Q203.4063,120.0595 205.9063,120.0595 Q206.6094,120.0595 207.25,120.2158 Q207.9063,120.372 208.4688,120.6689 L208.4688,123.3877 Q207.8438,122.8095 207.25,122.5439 Q206.6563,122.2627 206.0313,122.2627 Q204.6875,122.2627 204,123.3408 Q203.3125,124.4033 203.3125,126.497 Q203.3125,128.5908 204,129.6689 Q204.6875,130.7314 206.0313,130.7314 Q206.6563,130.7314 207.25,130.4658 Q207.8438,130.1845 208.4688,129.6064 L208.4688,132.3252 Z " fill="#000000"/><text fill="#D9B8FF" font-family="Helvetica" font-size="17" lengthAdjust="spacing" textLength="223" x="224.5" y="132.5698">gcp_sql_database_instance</text></g><!--class gcp_sql_operation--><g id="elem_gcp_sql_operation"><rect codeLine="26" fill="#3D176E" height="39.7891" id="gcp_sql_operation" rx="2.5" ry="2.5" style="stroke:#000D19;stroke-width:0.5;" width="191" x="227.5" y="206.58"/><ellipse cx="242.5" cy="226.4745" fill="#ADD1B2" rx="11" ry="11" style="stroke:#181818;stroke-width:1.0;"/><path d="M245.4688,232.1152 Q244.8906,232.412 244.25,232.5527 Q243.6094,232.7089 242.9063,232.7089 Q240.4063,232.7089 239.0781,231.0683 Q237.7656,229.412 237.7656,226.287 Q237.7656,223.162 239.0781,221.5058 Q240.4063,219.8495 242.9063,219.8495 Q243.6094,219.8495 244.25,220.0058 Q244.9063,220.162 245.4688,220.4589 L245.4688,223.1777 Q244.8438,222.5995 244.25,222.3339 Q243.6563,222.0527 243.0313,222.0527 Q241.6875,222.0527 241,223.1308 Q240.3125,224.1933 240.3125,226.287 Q240.3125,228.3808 241,229.4589 Q241.6875,230.5214 243.0313,230.5214 Q243.6563,230.5214 244.25,230.2558 Q244.8438,229.9745 245.4688,229.3964 L245.4688,232.1152 Z " fill="#000000"/><text fill="#D9B8FF" font-family="Helvetica" font-size="17" lengthAdjust="spacing" textLength="149" x="261.5" y="232.3598">gcp_sql_operation</text></g><!--class gcp_sql_user--><g id="elem_gcp_sql_user"><rect codeLine="28" fill="#3D176E" height="39.7891" id="gcp_sql_user" rx="2.5" ry="2.5" style="stroke:#000D19;stroke-width:0.5;" width="147" x="453.5" y="206.58"/><ellipse cx="468.5" cy="226.4745" fill="#ADD1B2" rx="11" ry="11" style="stroke:#181818;stroke-width:1.0;"/><path d="M471.4688,232.1152 Q470.8906,232.412 470.25,232.5527 Q469.6094,232.7089 468.9063,232.7089 Q466.4063,232.7089 465.0781,231.0683 Q463.7656,229.412 463.7656,226.287 Q463.7656,223.162 465.0781,221.5058 Q466.4063,219.8495 468.9063,219.8495 Q469.6094,219.8495 470.25,220.0058 Q470.9063,220.162 471.4688,220.4589 L471.4688,223.1777 Q470.8438,222.5995 470.25,222.3339 Q469.6563,222.0527 469.0313,222.0527 Q467.6875,222.0527 467,223.1308 Q466.3125,224.1933 466.3125,226.287 Q466.3125,228.3808 467,229.4589 Q467.6875,230.5214 469.0313,230.5214 Q469.6563,230.5214 470.25,230.2558 Q470.8438,229.9745 471.4688,229.3964 L471.4688,232.1152 Z " fill="#000000"/><text fill="#D9B8FF" font-family="Helvetica" font-size="17" lengthAdjust="spacing" textLength="105" x="487.5" y="232.3598">gcp_sql_user</text></g><!--class gcp_ssl_certificate--><g id="elem_gcp_ssl_certificate"><rect codeLine="30" fill="#3D176E" height="39.7891" id="gcp_ssl_certificate" rx="2.5" ry="2.5" style="stroke:#000D19;stroke-width:0.5;" width="192" x="227" y="7"/><ellipse cx="242" cy="26.8945" fill="#ADD1B2" rx="11" ry="11" style="stroke:#181818;stroke-width:1.0;"/><path d="M244.9688,32.5352 Q244.3906,32.832 243.75,32.9727 Q243.1094,33.1289 242.4063,33.1289 Q239.9063,33.1289 238.5781,31.4883 Q237.2656,29.832 237.2656,26.707 Q237.2656,23.582 238.5781,21.9258 Q239.9063,20.2695 242.4063,20.2695 Q243.1094,20.2695 243.75,20.4258 Q244.4063,20.582 244.9688,20.8789 L244.9688,23.5977 Q244.3438,23.0195 243.75,22.7539 Q243.1563,22.4727 242.5313,22.4727 Q241.1875,22.4727 240.5,23.5508 Q239.8125,24.6133 239.8125,26.707 Q239.8125,28.8008 240.5,29.8789 Q241.1875,30.9414 242.5313,30.9414 Q243.1563,30.9414 243.75,30.6758 Q244.3438,30.3945 244.9688,29.8164 L244.9688,32.5352 Z " fill="#000000"/><text fill="#D9B8FF" font-family="Helvetica" font-size="17" lengthAdjust="spacing" textLength="150" x="261" y="32.7798">gcp_ssl_certificate</text></g><!--link gcp_sql_database_instance to gcp_sql_database--><g id="link_gcp_sql_database_instance_gcp_sql_database"><path codeLine="32" d="M278.94,147.01 C239.85,164.15 188.5243,186.649 149.4643,203.789 " fill="none" id="gcp_sql_database_instance-to-gcp_sql_database" style="stroke:#1A83AF;stroke-width:2.0;"/><polygon fill="#1A83AF" points="143.97,206.2,153.8187,206.2464,148.5486,204.1909,150.6041,198.9207,143.97,206.2" style="stroke:#1A83AF;stroke-width:2.0;"/></g><!--link gcp_sql_database_instance to gcp_sql_operation--><g id="link_gcp_sql_database_instance_gcp_sql_operation"><path codeLine="33" d="M323,147.01 C323,164.15 323,183.06 323,200.2 " fill="none" id="gcp_sql_database_instance-to-gcp_sql_operation" style="stroke:#1A83AF;stroke-width:2.0;"/><polygon fill="#1A83AF" points="323,206.2,327,197.2,323,201.2,319,197.2,323,206.2" style="stroke:#1A83AF;stroke-width:2.0;"/></g><!--link gcp_sql_database_instance to gcp_sql_user--><g id="link_gcp_sql_database_instance_gcp_sql_user"><path codeLine="34" d="M363.3,147.01 C399.07,164.15 445.63,186.4655 481.37,203.6055 " fill="none" id="gcp_sql_database_instance-to-gcp_sql_user" style="stroke:#1A83AF;stroke-width:2.0;"/><polygon fill="#1A83AF" points="486.78,206.2,480.3946,198.7015,482.2716,204.0379,476.9353,205.9149,486.78,206.2" style="stroke:#1A83AF;stroke-width:2.0;"/></g><!--link gcp_ssl_certificate to gcp_sql_database_instance--><g id="link_gcp_ssl_certificate_gcp_sql_database_instance"><path codeLine="35" d="M323,47.22 C323,64.36 323,83.27 323,100.41 " fill="none" id="gcp_ssl_certificate-to-gcp_sql_database_instance" style="stroke:#1A83AF;stroke-width:2.0;"/><polygon fill="#1A83AF" points="323,106.41,327,97.41,323,101.41,319,97.41,323,106.41" style="stroke:#1A83AF;stroke-width:2.0;"/></g><!--SRC=[bP1DJm9138Rl_8f9E9EmRXIucAmaH2_4Y3TZDjsP3apOdLaxHOB6_ouhIiRzW73j-xHzsfLHAB0eUISAB38at_DhOqiWA4H2vBPJbpiIVQr1nwDwE7EMpm9pA53SO_wER2JKYUULaMkBtekh8Be3kLwIsrXr6Cy4rkyZj1nGqnoyJvZ9P1l6G4PDih7MTR8-j1-hQ7I33SoHGlf5XiEXYYPrvEogatSVYONvG165JvixnePcOyKFTTAo8WB9ng5_UQVZ8oXbx59S1xMdWnDPf7_rnGgKsrQqXjo7QpmZeUDTYTF6LJWPAprgXH-wO5bzJYnbcVgtF5N0a857yTdxweXIOps3bMsCAv60ZRCjsSRlRwoLVPvA93Pw_oa-3EnUDtZfHyauJcQlWzk6rQLzHzDB6wipUcto9_MEGxy1]--></g></svg>

<svg xmlns="http://www.w3.org/2000/svg" width="607" height="252" viewBox="0 0 607 252"><rect width="186" height="39.789" x="7" y="206.58" fill="#3D176E" rx="2.5" ry="2.5" style="stroke:#000d19;stroke-width:.5"/><circle cx="22" cy="226.475" r="11" fill="#ADD1B2" style="stroke:#181818;stroke-width:1"/><path d="M24.969 232.115q-.578.297-1.219.438-.64.156-1.344.156-2.5 0-3.828-1.64-1.312-1.657-1.312-4.782t1.312-4.781q1.328-1.656 3.828-1.656.703 0 1.344.156.656.156 1.219.453v2.719q-.625-.578-1.219-.844-.594-.281-1.219-.281-1.343 0-2.031 1.078-.687 1.062-.687 3.156t.687 3.172q.688 1.062 2.031 1.062.625 0 1.219-.265.594-.281 1.219-.86z"/><text x="41" y="232.36" fill="#D9B8FF" font-family="Helvetica" font-size="17" textLength="144">gcp_sql_database</text><rect width="265" height="39.789" x="190.5" y="106.79" fill="#3D176E" rx="2.5" ry="2.5" style="stroke:#000d19;stroke-width:.5"/><circle cx="205.5" cy="126.684" r="11" fill="#ADD1B2" style="stroke:#181818;stroke-width:1"/><path d="M208.469 132.325q-.578.297-1.219.438-.64.156-1.344.156-2.5 0-3.828-1.64-1.312-1.657-1.312-4.782t1.312-4.781q1.328-1.656 3.828-1.656.703 0 1.344.156.656.156 1.219.453v2.719q-.625-.579-1.219-.844-.594-.281-1.219-.281-1.344 0-2.031 1.078-.687 1.062-.687 3.156t.687 3.172q.688 1.062 2.031 1.062.625 0 1.219-.265.594-.281 1.219-.86z"/><text x="224.5" y="132.57" fill="#D9B8FF" font-family="Helvetica" font-size="17" textLength="223">gcp_sql_database_instance</text><rect width="191" height="39.789" x="227.5" y="206.58" fill="#3D176E" rx="2.5" ry="2.5" style="stroke:#000d19;stroke-width:.5"/><circle cx="242.5" cy="226.475" r="11" fill="#ADD1B2" style="stroke:#181818;stroke-width:1"/><path d="M245.469 232.115q-.578.297-1.219.438-.64.156-1.344.156-2.5 0-3.828-1.64-1.312-1.657-1.312-4.782t1.312-4.781q1.328-1.656 3.828-1.656.703 0 1.344.156.656.156 1.219.453v2.719q-.625-.578-1.219-.844-.594-.281-1.219-.281-1.344 0-2.031 1.078-.687 1.062-.687 3.156t.687 3.172q.688 1.062 2.031 1.062.625 0 1.219-.265.594-.281 1.219-.86z"/><text x="261.5" y="232.36" fill="#D9B8FF" font-family="Helvetica" font-size="17" textLength="149">gcp_sql_operation</text><rect width="147" height="39.789" x="453.5" y="206.58" fill="#3D176E" rx="2.5" ry="2.5" style="stroke:#000d19;stroke-width:.5"/><circle cx="468.5" cy="226.475" r="11" fill="#ADD1B2" style="stroke:#181818;stroke-width:1"/><path d="M471.469 232.115q-.578.297-1.219.438-.64.156-1.344.156-2.5 0-3.828-1.64-1.312-1.657-1.312-4.782t1.312-4.781q1.328-1.656 3.828-1.656.703 0 1.344.156.656.156 1.219.453v2.719q-.625-.578-1.219-.844-.594-.281-1.219-.281-1.344 0-2.031 1.078-.687 1.062-.687 3.156t.687 3.172q.688 1.062 2.031 1.062.625 0 1.219-.265.594-.281 1.219-.86z"/><text x="487.5" y="232.36" fill="#D9B8FF" font-family="Helvetica" font-size="17" textLength="105">gcp_sql_user</text><rect width="192" height="39.789" x="227" y="7" fill="#3D176E" rx="2.5" ry="2.5" style="stroke:#000d19;stroke-width:.5"/><circle cx="242" cy="26.895" r="11" fill="#ADD1B2" style="stroke:#181818;stroke-width:1"/><path d="M244.969 32.535q-.578.297-1.219.438-.64.156-1.344.156-2.5 0-3.828-1.64-1.312-1.657-1.312-4.782t1.312-4.781q1.328-1.656 3.828-1.656.703 0 1.344.156.656.156 1.219.453v2.719q-.625-.578-1.219-.844-.594-.281-1.219-.281-1.344 0-2.031 1.078-.687 1.062-.687 3.156t.687 3.172q.688 1.062 2.031 1.062.625 0 1.219-.265.594-.281 1.219-.86z"/><text x="261" y="32.78" fill="#D9B8FF" font-family="Helvetica" font-size="17" textLength="150">gcp_ssl_certificate</text><path fill="none" d="M278.94 147.01c-39.09 17.14-90.416 39.639-129.476 56.779" style="stroke:#1a83af;stroke-width:2"/><path fill="#1A83AF" d="m143.97 206.2 9.849.046-5.27-2.055 2.055-5.27z" style="stroke:#1a83af;stroke-width:2"/><path fill="none" d="M323 147.01v53.19" style="stroke:#1a83af;stroke-width:2"/><path fill="#1A83AF" d="m323 206.2 4-9-4 4-4-4z" style="stroke:#1a83af;stroke-width:2"/><path fill="none" d="M363.3 147.01c35.77 17.14 82.33 39.456 118.07 56.596" style="stroke:#1a83af;stroke-width:2"/><path fill="#1A83AF" d="m486.78 206.2-6.385-7.498 1.877 5.336-5.337 1.877z" style="stroke:#1a83af;stroke-width:2"/><path fill="none" d="M323 47.22v53.19" style="stroke:#1a83af;stroke-width:2"/><path fill="#1A83AF" d="m323 106.41 4-9-4 4-4-4z" style="stroke:#1a83af;stroke-width:2"/></svg>
